Icons/icons/mail.svg

<svg width="24" height="24" viewBox="0 0 24 24" fill="none" xmlns="http://www.w3.org/2000/svg">
<path fill-rule="evenodd" clip-rule="evenodd" d="M4 5C3.45228 5 3 5.45228 3 6V18C3 18.5477 3.45228 19 4 19H20C20.5477 19 21 18.5477 21 18V6C21 5.45228 20.5477 5 20 5H4ZM1 6C1 4.34772 2.34772 3 4 3H20C21.6523 3 23 4.34772 23 6V18C23 19.6523 21.6523 21 20 21H4C2.34772 21 1 19.6523 1 18V6Z" fill="#69B99D"/>
<path fill-rule="evenodd" clip-rule="evenodd" d="M1.18077 5.42656C1.49748 4.97411 2.12101 4.86408 2.57346 5.18079L12 11.7794L21.4265 5.18079C21.879 4.86408 22.5025 4.97411 22.8192 5.42656C23.1359 5.87901 23.0259 6.50254 22.5735 6.81926L12.5735 13.8193C12.2291 14.0603 11.7709 14.0603 11.4265 13.8193L1.42654 6.81926C0.974086 6.50254 0.864052 5.87901 1.18077 5.42656Z" fill="#69B99D"/>
</svg>

<!-- Generated by IcoMoon.io -->
<svg version="1.1" xmlns="http://www.w3.org/2000/svg" width="24" height="24" viewBox="0 0 24 24">
<title>mail</title>
<path d="M4 5c-0.548 0-1 0.452-1 1v12c0 0.548 0.452 1 1 1h16c0.548 0 1-0.452 1-1v-12c0-0.548-0.452-1-1-1h-16zM1 6c0-1.652 1.348-3 3-3h16c1.652 0 3 1.348 3 3v12c0 1.652-1.348 3-3 3h-16c-1.652 0-3-1.348-3-3v-12z"></path>
<path d="M1.181 5.427c0.317-0.452 0.94-0.562 1.393-0.246l9.427 6.599 9.426-6.599c0.453-0.317 1.076-0.207 1.393 0.246s0.207 1.076-0.246 1.393l-10 7c-0.344 0.241-0.803 0.241-1.147 0l-10-7c-0.452-0.317-0.562-0.94-0.246-1.393z"></path>
</svg>
